X: 3182
T: The WEDDING RING
Q: "Reel."
R: Reel.
%R: reel
B: James Kerr "Merry Melodies" v.3 p.21 #182
Z: 2016 John Chambers <jc:trillian.mit.edu>
M: C
L: 1/8
K: Gm
uA |\
B2dA B2dA | B2(fB) AFFA |\
B2(df) bfdB | AdD^F G3 :|\
F |\
DG^FG BGA=F | CF=EF AFFA |
DG^FG BGA=F | AdD^F G3=f |\
dgga bgaf | cffg afcf |\
dgbg fbdB | AdD^F G3 |]

%%sep 1 1 500
%%sep 1 1 500

